icons/open.svg

<svg width="46" height="46" fill="none" xmlns="http://www.w3.org/2000/svg"><path d="M23.5 14h-.67v9.49H13v.67h9.83V34h.67v-9.84H33v-.67h-9.5V14Z" fill="#FFF" fill-rule="evenodd"/><circle cx="23" cy="23" r="22" stroke="#FFF" stroke-width="2"/></svg>

<svg width="46.000000" height="46.000000" viewBox="0 0 46 46" fill="none" xmlns="http://www.w3.org/2000/svg" xmlns:xlink="http://www.w3.org/1999/xlink">
	<desc>
			Created with Pixso.
	</desc>
	<defs/>
	<path d="M23.5 14L22.83 14L22.83 23.49L13 23.49L13 24.16L22.83 24.16L22.83 34L23.5 34L23.5 24.16L33 24.16L33 23.49L23.5 23.49L23.5 14Z" fill="#FFFFFF" fill-opacity="1.000000" fill-rule="evenodd"/>
	<circle cx="23.000000" cy="23.000000" r="22.000000" stroke="#FFFFFF" stroke-opacity="1.000000" stroke-width="2.000000"/>
</svg>
